X: 1094
T: Hâtırımdan Çıkmaz Asla
C: Hacı Ârif Bey
O: Turkey
F: http://compmusic.upf.edu/node/140
N: rast--sarki--kapali_curcuna--hatirimdan_cikmaz--haci_arif_bey
N: makam= rast
N: form= sarki
N: usul= kapali_curcuna = 10/8
M: 10/8
L: 1/16
K: C _1/4B ^f  
Q: 1/4=192
%%MIDI tuningsystem comma53
d2c2 d2e4c2 e2d4z2  | B2A2 B2c4A2 c2B4z2  | \
w:  ARANAĞME  |   | 
G4 A2B2 c2d2 e2=f2 e2d2  | 
w:   | 
a2g2 =f2e2 d2e2 c2d4z2  | d2c2 d2e4c2 e2d4z2  | \
w:   |  ARANAĞME  | 
B2A2 B2c4A2 c2B4z2  | 
w:   | 
G4 g2=f2 e2d2 c2B2 A2G2  | A2B2 c2B2 A2G2 F2G4z2  | \
w:   |   | 
B6B2 A2A2 G2F2 E2D2  | 
w:  Hâ tı *  rım  | 
d8-d2dc dec2 B2A2  | A6c4(3B2A2B2c2 A2G2  | \
w:  dan   |  çık maz  as  | 
G8-G2D4G4z2  | 
w:  la  SAZ  | 
c4 B2c4d8-d2  | g8-g2=f2 e2d2 c2B2  | \
w:  ahd_ *  ü  pey  |  mâ  | 
f2e2 f2d4e2 d2e4c2  | d4 e2d2 c2B2 A2G4z2  | 
w:  nın  *  *  *  *  *  *  se  |  nin   SAZ  | 
B6B2 A2A2 G2F2 E2D2  | d8-d2dc dec2 B2A2  | \
w:  Hâ tı *  rım  |  dan   | 
A6c4(3B2A2B2c2 A2G2  | 
w:  çık maz  as  | 
G8-G2D4G4z2  | c4 B2c4d8-d2  | g8-g2=f2 e2d2 c2B2  | \
w:  la  SAZ  |  ahd_ *  ü  pey  |  mâ  | 
f2e2 f2d4e2 d2e4c2  | 
w:  nın  *  *  *  *  *  *  se  | 
d4 e2d2 c2B2 c2d4z2  | d6g4g2 f2_7/8e2 d2c2  | \
w:  nin   SAZ  |  Bin  ye min   | 
d2_7/8e2 f2g4f2 a2g6  | 
w:  et  | 
d4 e2=f4e2 d2c4d2  | e8-e2e2 a2e4d2  | \
w:  tin  *  a  za  |  lim   | 
d6e2 d2(3d2c2d2e4d2  | 
w:  yok  mu  *  in  | 
d8-d2d2 c2B2 A2G2  | B2A2 B2G4A2 G2A4F2  | \
w:  sa  |  fın  *  *  *  *  *  *  se  | 
G4 e2d2 c2B2 c2d4z2  | 
w:  nin   SAZ  | 
d6g4g2 f2_7/8e2 d2c2  | d2_7/8e2 f2g4f2 a2g6  | \
w:  Bin  ye min   |  et  | 
d4 e2=f4e2 d2c4d2  | 
w:  tin  *  a  za  | 
e8-e2e2 a2e4d2  | d6e2 d2(3d2c2d2e4d2  | \
w:  lim   |  yok  mu  *  in  | 
d8-d2d2 c2B2 A2G2  | 
w:  sa  | 
B2A2 B2G4A2 G2A4F2  | G6g4f2 a2g4z2  | \
w:  fın  *  *  *  *  *  *  se  |  nin   SAZ  | 
g6g4(3g2f2g2a4g2  | 
w:  Gön lü mü   | 
g8-g2gf gaf2 _7/8e2d2  | a4 g2g2 f2f2 _7/8e2e4d2  | \
w:  yık  |  tı  *  te *  mel  | 
d18z2  | c4 B2c4d8-d2  | 
w:  den   |  tîr_ *  i  müj  | 
g8-g2=f2 e2d2 c2B2  | f2e2 f2d4e2 d2e4c2  | \
w:  gâ  |  nın  *  *  *  *  *  *  se  | 
d6g4f2 a2g4z2  | 
w:  nin   SAZ  | 
g6g4(3g2f2g2a4g2  | g8-g2gf gaf2 _7/8e2d2  | \
w:  Gön lü mü   |  yık  | 
a4 g2g2 f2f2 _7/8e2e4d2  | 
w:  tı  *  te *  mel  | 
d18z2  | c4 B2c4d8-d2  | g8-g2=f2 e2d2 c2B2  | \
w:  den   |  tîr_ *  i  müj  |  gâ  | 
f2e2 f2d4e2 d2e4c2  | 
w:  nın  *  *  *  *  *  *  se  | 
d4 e2d2 c2B2 c2d4z2  | d6g4g2 f2_7/8e2 d2c2  | \
w:  nin   SAZ  |  Bin  ye min   | 
d2_7/8e2 f2g4f2 a2g6  | 
w:  et  | 
d4 e2=f4e2 d2c4d2  | e8-e2e2 a2e4d2  | \
w:  tin  *  a  za  |  lim   | 
d6e2 d2(3d2c2d2e4d2  | 
w:  yok  mu  *  in  | 
d8-d2d2 c2B2 A2G2  | B2A2 B2G4A2 G2A4F2  | \
w:  sa  |  fın  *  *  *  *  *  *  se  | 
G4 e2d2 c2B2 c2d4z2  | 
w:  nin   SAZ  | 
d6g4g2 f2_7/8e2 d2c2  | d2_7/8e2 f2g4f2 a2g6  | \
w:  Bin  ye min   |  et  | 
d4 e2=f4e2 d2c4d2  | 
w:  tin  *  a  za  | 
e8-e2e2 a2e4d2  | d6e2 d2(3d2c2d2e4d2  | \
w:  lim   |  yok  mu  *  in  | 
d8-d2d2 c2B2 A2G2  | 
w:  sa  | 
B2A2 B2G4A2 G2A4F2  | G4 e2d2 c2B2 A2G4z2  | |


